X:1
T:The Congress Reel
M:4/4
L:1/8
K:ADor L:1/8
eAAG A2Bd|eaaf gedg|eA (3AGA eA (3AGA|BG (3GFG B^cdf|
eAAG A2 Bd|eaaf gedB|cBcd eged|cABG A2 Bd :|
|: eaag a2 ag|eaag egdg|egdg egdg|eaaf gedg|
eaag a2 ag|eaag gedB|cBcd eged|cABG A2 Bd :|
